WebBeautyBook/ClientApp/src/assets/svg/edit.svg

<svg  width="35" height="35" viewBox="0 0 24 24" fill="none" xmlns="http://www.w3.org/2000/svg">
                <path opacity="0.5" d="M22 10.5V12C22 16.714 22 19.0711 20.5355 20.5355C19.0711 22 16.714 22 12 22C7.28595 22 4.92893 22 3.46447 20.5355C2 19.0711 2 16.714 2 12C2 7.28595 2 4.92893 3.46447 3.46447C4.92893 2 7.28595 2 12 2H13.5" stroke="currentColor" stroke-width="1.5" stroke-linecap="round"></path>
                <path d="M17.3009 2.80624L16.652 3.45506L10.6872 9.41993C10.2832 9.82394 10.0812 10.0259 9.90743 10.2487C9.70249 10.5114 9.52679 10.7957 9.38344 11.0965C9.26191 11.3515 9.17157 11.6225 8.99089 12.1646L8.41242 13.9L8.03811 15.0229C7.9492 15.2897 8.01862 15.5837 8.21744 15.7826C8.41626 15.9814 8.71035 16.0508 8.97709 15.9619L10.1 15.5876L11.8354 15.0091C12.3775 14.8284 12.6485 14.7381 12.9035 14.6166C13.2043 14.4732 13.4886 14.2975 13.7513 14.0926C13.9741 13.9188 14.1761 13.7168 14.5801 13.3128L20.5449 7.34795L21.1938 6.69914C22.2687 5.62415 22.2687 3.88124 21.1938 2.80624C20.1188 1.73125 18.3759 1.73125 17.3009 2.80624Z" stroke="currentColor" stroke-width="1.5"></path>
                <path opacity="0.5" d="M16.6522 3.45508C16.6522 3.45508 16.7333 4.83381 17.9499 6.05034C19.1664 7.26687 20.5451 7.34797 20.5451 7.34797M10.1002 15.5876L8.4126 13.9" stroke="currentColor" stroke-width="1.5"></path>
            </svg>

<svg xmlns="http://www.w3.org/2000/svg" width="35" height="35" viewBox="0 0 24 24" fill="none" stroke="#000" stroke-width="1.5" xmlns:v="https://vecta.io/nano"><path opacity=".5" d="M22 10.5V12c0 4.714 0 7.071-1.465 8.535S16.714 22 12 22s-7.071 0-8.536-1.465S2 16.714 2 12s0-7.071 1.464-8.536S7.286 2 12 2h1.5" stroke-linecap="round"/><path d="M17.301 2.806l-.649.649-5.965 5.965-.78.829c-.205.263-.381.547-.524.848-.122.255-.212.526-.393 1.068L8.412 13.9l-.374 1.123a.74.74 0 0 0 .939.939l1.123-.374 1.735-.578 1.068-.393a4.59 4.59 0 0 0 .848-.524c.223-.174.425-.376.829-.78l5.965-5.965.649-.649c1.075-1.075 1.075-2.818 0-3.893s-2.818-1.075-3.893 0z"/><path opacity=".5" d="M16.652 3.455s.081 1.379 1.298 2.595 2.595 1.298 2.595 1.298M10.1 15.588L8.413 13.9"/></svg>
